web/packages/design/src/ResourceIcon/assets/posthog-light.svg

<svg width="72" height="72" viewBox="0 0 72 72" fill="none" xmlns="http://www.w3.org/2000/svg">
<path d="M15.7135 38.0886C15.6471 38.2208 15.5452 38.3319 15.4193 38.4096C15.2934 38.4872 15.1483 38.5283 15.0004 38.5283C14.8525 38.5283 14.7074 38.4872 14.5815 38.4096C14.4556 38.3319 14.3537 38.2208 14.2873 38.0886L12.1811 33.9057C12.1249 33.7943 12.0957 33.6713 12.0957 33.5466C12.0957 33.4218 12.1249 33.2988 12.1811 33.1874L14.2881 29.0053C14.3546 28.8733 14.4565 28.7624 14.5823 28.6849C14.7081 28.6074 14.853 28.5664 15.0008 28.5664C15.1486 28.5664 15.2935 28.6074 15.4193 28.6849C15.5452 28.7624 15.647 28.8733 15.7135 29.0053L17.8197 33.1874C17.8759 33.2988 17.9051 33.4218 17.9051 33.5466C17.9051 33.6713 17.8759 33.7943 17.8197 33.9057L15.7135 38.0886ZM15.7135 52.9822C15.6471 53.1144 15.5452 53.2255 15.4193 53.3031C15.2934 53.3808 15.1483 53.4219 15.0004 53.4219C14.8525 53.4219 14.7074 53.3808 14.5815 53.3031C14.4556 53.2255 14.3537 53.1144 14.2873 52.9822L12.1811 48.7993C12.1249 48.6879 12.0957 48.5649 12.0957 48.4401C12.0957 48.3154 12.1249 48.1924 12.1811 48.081L14.2881 43.8989C14.3546 43.7669 14.4565 43.656 14.5823 43.5785C14.7081 43.501 14.853 43.46 15.0008 43.46C15.1486 43.46 15.2935 43.501 15.4193 43.5785C15.5452 43.656 15.647 43.7669 15.7135 43.8989L17.8197 48.081C17.8759 48.1924 17.9051 48.3154 17.9051 48.4401C17.9051 48.5649 17.8759 48.6879 17.8197 48.7993L15.7135 52.9822Z" fill="#1D4AFF"/>
<path d="M2.50579e-07 44.1871C2.50579e-07 43.4768 0.857172 43.1208 1.36078 43.6204L10.626 52.8203C11.1313 53.3223 10.7761 54.185 10.0634 54.185H0.798111C0.586439 54.185 0.383436 54.1009 0.233762 53.9513C0.0840867 53.8016 2.50579e-07 53.5986 2.50579e-07 53.3869V44.1871ZM2.50579e-07 38.9595C2.20573e-05 39.0646 0.0208341 39.1688 0.0612397 39.2659C0.101645 39.363 0.160848 39.4512 0.235443 39.5253L14.7667 53.9528C14.9161 54.101 15.118 54.1842 15.3285 54.1842H25.0631C25.7758 54.1842 26.131 53.3223 25.6257 52.8203L1.36078 28.7269C0.857172 28.2273 2.50579e-07 28.5832 2.50579e-07 29.2935V38.9595ZM2.50579e-07 24.0651C-8.31997e-05 24.1704 0.0206777 24.2747 0.0610864 24.372C0.101495 24.4692 0.160752 24.5575 0.235443 24.6318L29.7663 53.9528C29.916 54.1012 30.1183 54.1844 30.329 54.1842H40.0636C40.7755 54.1842 41.1315 53.3223 40.6254 52.8203L1.36078 13.8341C0.857172 13.3337 2.50579e-07 13.6905 2.50579e-07 14.4008V24.0651ZM14.9997 24.0651C14.9997 24.1705 15.0206 24.2748 15.0612 24.3721C15.1017 24.4693 15.1611 24.5576 15.2359 24.6318L43.6399 52.8338C44.1427 53.3342 44.9999 52.9775 44.9999 52.2672V42.602C45 42.4967 44.9792 42.3924 44.9388 42.2952C44.8984 42.1979 44.8391 42.1096 44.7645 42.0354L16.3597 13.8341C15.8569 13.3345 14.9997 13.6905 14.9997 14.4008V24.0651ZM31.361 13.8333C30.8566 13.3337 30.0002 13.6897 30.0002 14.4V24.0651C30.0001 24.1704 30.0209 24.2747 30.0613 24.372C30.1017 24.4692 30.1609 24.5575 30.2356 24.6318L43.6391 37.9403C44.1435 38.4407 44.9999 38.0839 44.9999 37.3736V27.7085C45 27.6032 44.9792 27.4989 44.9388 27.4016C44.8984 27.3044 44.8391 27.2161 44.7645 27.1418L31.3602 13.8341L31.361 13.8333Z" fill="#F9BD2B"/>
<path d="M63.8064 46.0489L48.4827 30.8337C47.9783 30.3333 47.1211 30.69 47.1211 31.4003V53.3867C47.1211 53.5984 47.2052 53.8014 47.3549 53.9511C47.5045 54.1007 47.7075 54.1848 47.9192 54.1848H71.2017C71.4134 54.1848 71.6164 54.1007 71.766 53.9511C71.9157 53.8014 71.9998 53.5984 71.9998 53.3867V50.2166C71.9998 49.7761 71.6423 49.4217 71.2017 49.3914C68.4151 49.2018 65.7899 48.0153 63.8064 46.0489ZM54.3217 49.4185C52.9968 49.4185 51.9217 48.3514 51.9217 47.0353C51.9217 45.7201 52.9968 44.653 54.3217 44.653C55.6465 44.653 56.7216 45.7201 56.7216 47.0353C56.7216 48.3514 55.6465 49.4185 54.3217 49.4185Z" fill="black"/>
<path d="M2.50579e-07 53.3867C2.50579e-07 53.5984 0.0840867 53.8014 0.233762 53.9511C0.383436 54.1007 0.586439 54.1848 0.798111 54.1848H10.0642C10.7761 54.1848 11.1313 53.3221 10.6261 52.8201L1.35998 43.6202C0.857172 43.1206 2.50579e-07 43.4766 2.50579e-07 44.1869V53.3867ZM14.9997 27.3763L1.35998 13.8331C0.85797 13.3335 2.50579e-07 13.6903 2.50579e-07 14.4006V24.0657C-8.31997e-05 24.171 0.0206777 24.2753 0.0610864 24.3726C0.101495 24.4698 0.160752 24.5581 0.235443 24.6324L15.0005 39.2921L14.9997 27.3763ZM1.36078 28.7267C0.857172 28.2271 2.50579e-07 28.583 2.50579e-07 29.2933V38.9585C-8.31997e-05 39.0638 0.0206777 39.1681 0.0610864 39.2653C0.101495 39.3626 0.160752 39.4509 0.235443 39.5251L15.0005 54.1848V42.269L1.35998 28.7267H1.36078Z" fill="#1D4AFF"/>
<path d="M30.0005 27.7077C30.0005 27.6023 29.9796 27.498 29.939 27.4007C29.8985 27.3035 29.8391 27.2152 29.7643 27.141L16.3616 13.8333C15.858 13.3337 15.0008 13.6897 15.0008 14.4V24.0651C15.0008 24.1705 15.0217 24.2748 15.0623 24.3721C15.1028 24.4693 15.1622 24.5576 15.237 24.6318L30.0013 39.2915L30.0005 27.7077ZM15 54.1842H25.0642C25.7761 54.1842 26.1321 53.3215 25.6261 52.8195L15 42.2684V54.1842ZM15 27.3757V38.9579C15 39.0632 15.0209 39.1676 15.0615 39.2648C15.102 39.3621 15.1614 39.4503 15.2362 39.5245L30.0005 54.1842V42.6012C30.0005 42.4959 29.9796 42.3916 29.939 42.2943C29.8985 42.197 29.8391 42.1088 29.7643 42.0346L15 27.3757Z" fill="#F54E00"/>
</svg>

<svg xmlns="http://www.w3.org/2000/svg" width="72" height="72" fill="none" viewBox="0 0 72 72"><path fill="#1d4aff" d="M15.714 38.089a.798.798 0 0 1-1.427 0l-2.106-4.183a.8.8 0 0 1 0-.719l2.107-4.182a.798.798 0 0 1 1.425 0l2.107 4.182a.8.8 0 0 1 0 .719zm0 14.893a.797.797 0 0 1-1.427 0L12.181 48.8a.8.8 0 0 1 0-.718l2.107-4.182a.798.798 0 0 1 1.425 0l2.107 4.182a.8.8 0 0 1 0 .718z"/><path fill="#f9bd2b" d="M0 44.187a.798.798 0 0 1 1.36-.567l9.266 9.2a.798.798 0 0 1-.563 1.365H.798A.8.8 0 0 1 0 53.387zm0-5.227a.8.8 0 0 0 .235.565l14.532 14.428c.15.148.351.231.562.231h9.734a.798.798 0 0 0 .563-1.364L1.36 28.727a.798.798 0 0 0-1.36.567zm0-14.895a.8.8 0 0 0 .235.567l29.531 29.32c.15.15.352.232.563.232h9.735a.798.798 0 0 0 .561-1.364L1.361 13.834A.798.798 0 0 0 0 14.401zm15 0a.8.8 0 0 0 .236.567L43.64 52.834c.503.5 1.36.143 1.36-.567v-9.665a.8.8 0 0 0-.236-.567l-28.404-28.2A.798.798 0 0 0 15 14.4zm16.36-10.232A.798.798 0 0 0 30 14.4v9.665a.8.8 0 0 0 .235.567L43.639 37.94a.798.798 0 0 0 1.36-.566v-9.666a.8.8 0 0 0-.235-.566z"/><path fill="#000" d="M63.806 46.049 48.483 30.834a.799.799 0 0 0-1.362.566v21.987a.8.8 0 0 0 .798.798h23.283a.8.8 0 0 0 .798-.798v-3.17c0-.44-.358-.795-.798-.826a11.63 11.63 0 0 1-7.396-3.342m-9.484 3.37a2.39 2.39 0 0 1-2.4-2.384 2.39 2.39 0 0 1 2.4-2.382c1.325 0 2.4 1.067 2.4 2.382a2.39 2.39 0 0 1-2.4 2.384"/><path fill="#1d4aff" d="M0 53.387a.8.8 0 0 0 .798.798h9.266c.712 0 1.067-.863.562-1.365l-9.266-9.2a.798.798 0 0 0-1.36.567zm15-26.01L1.36 13.832c-.502-.5-1.36-.143-1.36.568v9.665a.8.8 0 0 0 .235.566l14.766 14.66zm-13.64 1.35a.798.798 0 0 0-1.36.566v9.666a.8.8 0 0 0 .235.566l14.766 14.66V42.269z"/><path fill="#f54e00" d="M30 27.708a.8.8 0 0 0-.236-.567L16.362 13.833A.798.798 0 0 0 15 14.4v9.665a.8.8 0 0 0 .236.567L30 39.292zM15 54.184h10.064a.798.798 0 0 0 .562-1.364L15 42.268zm0-26.808v11.582a.8.8 0 0 0 .236.567L30 54.185V42.6a.8.8 0 0 0-.236-.566z"/></svg>
